X:444
T: Duihua shange
N: C2061
O: China,Zhejiang Xianju
S: III, 604]
R: Shange]
M: 2/4
L: 1/16
K: A
F3cc2B2 | B2c2B2AB | c4B2AB | E8 |
F2B2B2BA | F2A4AF | E2F2B,2C2 | E8 |
F2c2B2BA | B2cAB4 | (3c2B2F2A4- | A8 |
F2B2A2B2 | B4A2BA | A3BA2F2 | F2E4
EF | A6B2 | F2E4F2 | A8

@@@ Tune index: 6999
